docs/.gitbook/assets/icon-memory-stick-16@light.svg

<svg width="32" height="32" viewBox="0 0 16 16" fill="none" xmlns="http://www.w3.org/2000/svg">
<rect x="0" y="0" width="16" height="16" fill="#fff"/>
<path fill-rule="evenodd" clip-rule="evenodd" d="M5 1.75C5 1.33579 5.33579 1 5.75 1H10.25C10.6642 1 11 1.33579 11 1.75V4H12.25C12.6642 4 13 4.33579 13 4.75V12.25C13 13.7688 11.7688 15 10.25 15H5.75C4.23122 15 3 13.7688 3 12.25V4.75C3 4.33579 3.33579 4 3.75 4H5V1.75ZM6.5 4H9.5V2.5H6.5V4ZM4.5 5.5V12.25C4.5 12.9404 5.05964 13.5 5.75 13.5H10.25C10.9404 13.5 11.5 12.9404 11.5 12.25V5.5H10.25H5.75H4.5Z" fill="#000"/>
</svg>

<svg xmlns="http://www.w3.org/2000/svg" width="32" height="32" fill="none" viewBox="0 0 16 16"><path fill="#fff" d="M0 0h16v16H0z"/><path fill="#000" fill-rule="evenodd" d="M5 1.75A.75.75 0 0 1 5.75 1h4.5a.75.75 0 0 1 .75.75V4h1.25a.75.75 0 0 1 .75.75v7.5A2.75 2.75 0 0 1 10.25 15h-4.5A2.75 2.75 0 0 1 3 12.25v-7.5A.75.75 0 0 1 3.75 4H5zM6.5 4h3V2.5h-3zm-2 1.5v6.75c0 .69.56 1.25 1.25 1.25h4.5c.69 0 1.25-.56 1.25-1.25V5.5z" clip-rule="evenodd"/></svg>
